X:2548
T:Henry's Cat
O:england
R:Hornpipe
N:Jan '96
M:4/4
Q:1/8=320
C:Andy Hornby
A:Lancaster
K:G
(3Bc^c|\
dedB cAFD|GABG DGF=F|EGcE DGBG|cBAG A2(3Bc^c|\
dedB cAFD|GABG DGF=F|EGce dcAF|G4 G2::\
AG|\
FAcA FDEF|GBdc BGAB|ceag fde^c|de^ce d2(3B=c^c|\
dedB cAFD|GABG DGF=F|EGBe dBGF|G4 G2:|
W:Copyright (C) Andy Hornby


